svg/icon/wpr.svg

<svg xmlns="http://www.w3.org/2000/svg" xmlns:xlink="http://www.w3.org/1999/xlink" width="32" height="32" viewBox="0 0 32 32"><defs><linearGradient id="wpr-c" x1="50%" x2="50%" y1="0%" y2="100%"><stop offset="0%" stop-color="#FFF" stop-opacity=".5"/><stop offset="100%" stop-opacity=".5"/></linearGradient><circle id="wpr-b" cx="16" cy="15" r="15"/><filter id="wpr-a" width="111.7%" height="111.7%" x="-5.8%" y="-4.2%" filterUnits="objectBoundingBox"><feOffset dy=".5" in="SourceAlpha" result="shadowOffsetOuter1"/><feGaussianBlur in="shadowOffsetOuter1" result="shadowBlurOuter1" stdDeviation=".5"/><feComposite in="shadowBlurOuter1" in2="SourceAlpha" operator="out" result="shadowBlurOuter1"/><feColorMatrix in="shadowBlurOuter1" values="0 0 0 0 0 0 0 0 0 0 0 0 0 0 0 0 0 0 0.199473505 0"/></filter><path id="wpr-e" d="M4.32766046,5.57812419 C5.09292435,4.63126029 5.97105922,3.77939431 6.94160664,3.0429847 L11.1020369,17.9180807 L13.0756908,9.47977219 L16.8148509,9.47977219 L18.7873516,17.9180807 L21.1242547,9.47977219 L24.8732168,9.47977219 L24.9083886,9.63010387 L28.6350512,23.0877021 C27.9327257,24.1826399 27.0919668,25.1802923 26.1374792,26.0559547 L22.9958528,14.7082962 L21.036037,21.7872349 L21.0008653,21.9369861 L16.8148509,21.9369861 L14.9455591,15.0048966 L13.0756908,21.9369861 L8.88909984,21.9369861 L8.85450468,21.7872349 L4.32766046,5.57812419 Z"/><filter id="wpr-d" width="114.4%" height="115.2%" x="-7.2%" y="-5.4%" filterUnits="objectBoundingBox"><feOffset dy=".5" in="SourceAlpha" result="shadowOffsetOuter1"/><feGaussianBlur in="shadowOffsetOuter1" result="shadowBlurOuter1" stdDeviation=".5"/><feColorMatrix in="shadowBlurOuter1" values="0 0 0 0 0 0 0 0 0 0 0 0 0 0 0 0 0 0 0.204257246 0"/></filter></defs><g fill="none" fill-rule="evenodd"><use fill="#000" filter="url(#wpr-a)" xlink:href="#wpr-b"/><use fill="#FFE600" xlink:href="#wpr-b"/><use fill="url(#wpr-c)" style="mix-blend-mode:soft-light" xlink:href="#wpr-b"/><circle cx="16" cy="15" r="14.5" stroke="#000" stroke-opacity=".097"/><g><use fill="#000" filter="url(#wpr-d)" xlink:href="#wpr-e"/><use fill="#FFF" xlink:href="#wpr-e"/></g></g></svg>

<svg xmlns="http://www.w3.org/2000/svg" xmlns:xlink="http://www.w3.org/1999/xlink" width="32" height="32" viewBox="0 0 32 32"><defs><linearGradient id="c" x1="50%" x2="50%" y1="0%" y2="100%"><stop offset="0%" stop-color="#FFF" stop-opacity=".5"/><stop offset="100%" stop-opacity=".5"/></linearGradient><circle id="b" cx="16" cy="15" r="15"/><filter id="a" width="111.7%" height="111.7%" x="-5.8%" y="-4.2%" filterUnits="objectBoundingBox"><feOffset dy=".5" in="SourceAlpha" result="shadowOffsetOuter1"/><feGaussianBlur in="shadowOffsetOuter1" result="shadowBlurOuter1" stdDeviation=".5"/><feComposite in="shadowBlurOuter1" in2="SourceAlpha" operator="out" result="shadowBlurOuter1"/><feColorMatrix in="shadowBlurOuter1" values="0 0 0 0 0 0 0 0 0 0 0 0 0 0 0 0 0 0 0.199473505 0"/></filter><path id="e" d="M4.328 5.578a15.09 15.09 0 0 1 2.614-2.535l4.16 14.875 1.974-8.438h3.739l1.972 8.438 2.337-8.438h3.75l.034.15 3.727 13.458a15.075 15.075 0 0 1-2.498 2.968l-3.141-11.348-1.96 7.08-.035.149h-4.186l-1.87-6.932-1.87 6.932H8.89l-.034-.15L4.328 5.578z"/><filter id="d" width="114.4%" height="115.2%" x="-7.2%" y="-5.4%" filterUnits="objectBoundingBox"><feOffset dy=".5" in="SourceAlpha" result="shadowOffsetOuter1"/><feGaussianBlur in="shadowOffsetOuter1" result="shadowBlurOuter1" stdDeviation=".5"/><feColorMatrix in="shadowBlurOuter1" values="0 0 0 0 0 0 0 0 0 0 0 0 0 0 0 0 0 0 0.204257246 0"/></filter></defs><g fill="none" fill-rule="evenodd"><use fill="#000" filter="url(#a)" xlink:href="#b"/><use fill="#FFE600" xlink:href="#b"/><use fill="url(#c)" style="mix-blend-mode:soft-light" xlink:href="#b"/><circle cx="16" cy="15" r="14.5" stroke="#000" stroke-opacity=".097"/><use fill="#000" filter="url(#d)" xlink:href="#e"/><use fill="#FFF" xlink:href="#e"/></g></svg>
